!!!SOCIAL_FUNCTION:	songs concerning a boy's fast
!!!PDT:	1913
!!!OTL: No_100_Song_Before_a_Boy_Goes_Out_to_Fast.krn
!!!REG: Great_Lakes
!!!LANG: Non-Tone
!!!LING_GROUP: Algonquin
**kern	**kern
*staff2	*staff1
=1-	=1-
*clefF4	*clefF4
*k[b-e-a-d-g-]	*k[b-e-a-d-g-]
*M3/4	*M3/4
8GG-/L	8d-\L
8GG-/J	8d-\J
8GG-/L	8d-\L
8GG-/J	8d-\J
8GG-/L	4c\
8GG-/J	.
=2||	=2||
*M2/4	*M2/4
8GG-/L	8d-\L
8GG-/J	8d-\J
8GG-/L	8d-\L
8GG-/J	8d-\J
=3	=3
2r	4..c\
.	16An\
=4	=4
2r	8c\L
.	16c\L
.	16c\JJ
.	8.d-\L
.	16c\Jk
=5	=5
2r	8B-\L
.	8B-\J
.	8c\L
.	16B-\L
.	16A-\JJ
=6	=6
2r	[4B-\
.	16B-\LL]
.	16F\J
.	8F\J
=7	=7
2r	8B-\L
.	16.B-\L
.	32A-\JJk
.	12B-\L
.	[12A-\
.	12A-\J_
=8	=8
2r	4A-\]
.	8A-\L
.	8A-\J
=9	=9
2r	[2B-\
=10	=10
2r	2B-\_
=11	=11
2r	2B-\]
==	==
*-	*-
